X:100
T:Cainc y Fflemynes - The Flemish Womans Song
M:4/4
L:1/4
Q:90
C:Trad. arr. J.T.
S:Ifor Ceri c.1820, collected in Pembrokeshire
R:Processional
N:Slightly compressed
K:G
d>c B d | A A d/2c/2 B | A A d B | G B A/2G/2 F :|| G
2 F2 | E/2G/2 F/2E/2 D D | E E/2F/2 G F | G B d B/2A/2
| G A/2G/2 F E ||
